X:1
T:San Lucas, 10.9.10.9 D
T:San Lucas, 10.9.10.9 D
T:Attributed to William Buel Stevens (1862-1943)
T:Public Domain Courtesy of the Cyber Hymnal™
C:Attributed to William Buel Stevens (1862-1943)
Z:Public Domain
Z:Courtesy of the Cyber Hymnal™
%%score ( 1 2 ) ( 3 4 )
L:1/8
Q:1/4=98
M:9/8
K:D
V:1 treble 
V:2 treble 
V:3 bass 
V:4 bass 
V:1
 [DF][DA] (F/E/) | D3 [DF]3 [DE][B,D]B, | [A,D]3 [A,D]3 [DF][DA][GB] | [FA]3 [DF]3 [DF][CE][B,D] | %4
 [CE]6 [DF][FA] (F/E/) | D3 [DF]3 [DE][B,D]B, | D3 D3 [DF][DF][GB] | [FA]3 [DF]3 [CE][CF][CE] | %8
 D6 [DF][DA][DB] | [FA]3 [DF]3 [DE][B,D]B, | D3 D3 [DF][DA][GB] | [FA]3 [DF]3 [DF][DE]D | %12
 [CE]6 [DF][FA] (F/E/) | D3 [DF]3 [DE][B,D]B, | D3 D3 [DF][FA][GB] | [FA]3 [DF]3 [CE][CF][CE] | %16
 D6 |] %17
V:2
 x2 D | D3 x2 B, x3 | x9 | x9 | x8 D | D3 x2 B, x3 | D3 D3 x3 | x9 | D6 x3 | x8 B, | D3 D3 x3 | %11
 x8 D | x8 D | D3 x2 B, x3 | D3 D3 x3 | x9 | D6 |] %17
V:3
 [D,A,][D,F,][D,F,] | [D,A,]3 [F,=C]3 [G,B,][G,B,][G,B,] | [D,A,]3 [D,F,]3 [D,A,][D,F,][D,G,] | %3
 [D,A,]3 [D,A,]3 [D,A,][C,G,][B,,G,] | [A,,A,]6 [D,A,][D,D][D,D] | %5
 [D,D]3 [F,=C]3 [G,B,][G,D][G,D] | [D,D]3 [D,A,]3 [D,F,][D,A,][D,D] | [D,D]3 [F,B,]3 A,A,A, | %8
 [D,D]6 [D,D][D,D][D,D] | [D,D]3 [D,A,]3 [G,B,][G,B,][G,B,] | [D,D]3 [D,D]3 [D,A,][D,F,][D,G,] | %11
 [D,A,]3 [F,D]3 [^G,B,][G,B,][G,B,] | A,6 [D,A,][D,D][D,D] | [D,D]3 [F,=C]3 [G,B,][G,D][G,D] | %14
 [D,D]3 [D,A,]3 [D,F,][D,A,][D,D] | [D,D]3 [F,B,]3 A,A,A, | [D,D]6 |] %17
V:4
 x3 | x9 | x9 | x9 | x9 | x9 | x9 | x6 A,A,A, | x9 | x9 | x9 | x9 | A,6 x3 | x9 | x9 | x6 A,A,A, | %16
 x6 |] %17

